svgs/sharp-light/square-j.svg

<svg xmlns="http://www.w3.org/2000/svg" viewBox="0 0 448 512"><!--! Font Awesome Pro 6.6.0 by @fontawesome - https://fontawesome.com License - https://fontawesome.com/license (Commercial License) Copyright 2024 Fonticons, Inc. --><path d="M32 64l0 384 384 0 0-384L32 64zM0 32l32 0 384 0 32 0 0 32 0 384 0 32-32 0L32 480 0 480l0-32L0 64 0 32zM304 144l0 144c0 53-43 96-96 96s-96-43-96-96l0-16 0-16 32 0 0 16 0 16c0 35.3 28.7 64 64 64s64-28.7 64-64l0-144 0-16 32 0 0 16z"/></svg>

<svg xmlns="http://www.w3.org/2000/svg" viewBox="0 0 448 512"><!--! Font Awesome Pro 6.4.2 by @fontawesome - https://fontawesome.com License - https://fontawesome.com/license (Commercial License) Copyright 2023 Fonticons, Inc. --><path d="M32 64V448H416V64H32zM0 32H32 416h32V64 448v32H416 32 0V448 64 32zM304 144V288c0 53-43 96-96 96s-96-43-96-96V272 256h32v16 16c0 35.3 28.7 64 64 64s64-28.7 64-64V144 128h32v16z"/></svg>
